icons/mouse.svg

<svg width="24" height="24" viewBox="0 0 24 24" fill="none" xmlns="http://www.w3.org/2000/svg">
<path fill-rule="evenodd" clip-rule="evenodd" d="M6.29883 9.45005C6.29883 6.27189 8.8554 3.80005 11.9489 3.80005H12.0488C15.227 3.80005 17.6989 6.3566 17.6989 9.45005V14.5608L17.6992 14.5715C17.7865 17.6287 15.2469 20.2001 12.0488 20.2001H11.9489C8.77069 20.2001 6.29883 17.6435 6.29883 14.55V9.45005ZM11.9489 2.30005C8.04231 2.30005 4.79883 5.42821 4.79883 9.45005V14.55C4.79883 18.4566 7.92702 21.7001 11.9489 21.7001H12.0488C16.0471 21.7001 19.3051 18.4774 19.1989 14.5396V9.45005C19.1989 5.5435 16.0707 2.30005 12.0488 2.30005H11.9489ZM12.7988 7.94995C12.7988 7.53574 12.463 7.19995 12.0488 7.19995C11.6346 7.19995 11.2988 7.53574 11.2988 7.94995V9.94995C11.2988 10.3642 11.6346 10.7 12.0488 10.7C12.463 10.7 12.7988 10.3642 12.7988 9.94995V7.94995Z" fill="black"/>
</svg>

<svg xmlns="http://www.w3.org/2000/svg" fill="none" viewBox="0 0 24 24">
  <path fill="#000" fill-rule="evenodd" d="M6.299 9.45a5.63 5.63 0 0 1 5.65-5.65h.1a5.63 5.63 0 0 1 5.65 5.65v5.121c.087 3.058-2.452 5.63-5.65 5.63h-.1a5.63 5.63 0 0 1-5.65-5.651v-5.1Zm5.65-7.15a7.13 7.13 0 0 0-7.15 7.15v5.1a7.13 7.13 0 0 0 7.15 7.15h.1c3.998 0 7.256-3.223 7.15-7.16V9.45a7.13 7.13 0 0 0-7.15-7.15h-.1Zm.85 5.65a.75.75 0 0 0-1.5 0v2a.75.75 0 1 0 1.5 0v-2Z" clip-rule="evenodd"/>
</svg>
